X:1
T:Title
%%score ( 1 2 ) 3
L:1/8
Q:1/4=102
M:4/4
K:E
V:1 treble nm="Grand Piano, Soprano"
V:2 treble 
V:3 bass nm="Choir Pad, Lead Me Safely On"
V:1
 E>[EG] [GB]2 [GB]2 [GB]2 | [Ac]>[GB] [EG]2 [EG]2 [EG]2 | [EA]>[EB] [Ec]2 [Ec]2 [Ec]2 | %3
w: By~R.~A.~Glenn * * * *|||
 [EB]>[EG] [DF]2 [DF]2 [DF]2 | E>[EG] [GB]2 [GB]2 [GB]2 | [Ac]>[GB] [EG]2 [EG]2 [EG]2 | %6
w: |||
 [EA]>[EB] [Ec]2 [Ec]2 [EB]2 | E>[EF] [EG]2 [DF]2 E2 | z2 B6 | z2 F6 | %10
w: ||||
 [DF]>[EG] [FA]2 [GB]2 [Ac]2 | [GB]2 [EG]6 | z2 B6 | z2 c6 | [EA]>[Ec] [EB]2 E>F [EG]2 | %15
w: |||||
 [DF]2 E6- | E2 z2 z4 |] %17
w: ||
V:2
 x8 | x8 | x8 | x8 | x8 | x8 | x8 | x8 | (3EFG z2 E>E E2 | (3GFE z2 D>D D2 | x8 | x8 | %12
 (3EFG z2 E>E E2 | (3GFE z2 E>E E2 | x8 | x8 | x8 |] %17
V:3
 [E,G,]>[E,B,] [E,E]2 [E,E]2 [E,E]2 | [E,E]>[E,E] [E,B,]2 [E,B,]2 [E,B,]2 | %2
 [F,B,]>[G,B,] A,2 A,2 A,2 | [G,B,]>[E,B,] [B,,B,]2 [B,,B,]2 [B,,B,]2 | %4
 [E,G,]>[E,B,] [E,E]2 [E,E]2 [E,E]2 | [E,E]>[E,E] [E,B,]2 [E,B,]2 [E,B,]2 | %6
 [F,B,]>[G,B,] A,2 A,2 [G,B,]2 | [A,C]>[A,C] B,2 [B,,A,]2 [E,G,]2 | z4 [E,G,]>[E,G,] [E,G,]2 | %9
 z4 [B,,B,]>[B,,B,] [B,,B,]2 | [B,,B,]>[B,,B,] [B,,B,]2 [B,,B,]2 [B,,B,]2 | [B,,B,]2 [E,B,]6 | %12
 z4 [E,G,]>[E,G,] [E,G,]2 | z4 A,>A, A,2 | [A,C]>A, [G,B,]2 [A,C]2 B,2 | [B,,A,]2 [E,G,]6- | %16
 [E,G,]2 z2 z4 |] %17

